X: 37380
T: Sleeping Tortoise, The
R: jig
M: 6/8
K: Dmajor
|:EB B3 B|ABf gfd|deA ABA|ABF FAB|
AB B3 B|ABf gfd|edB ABB|FBB AGF:|
|:cAA Ged|cAA edc|BGG EGA|BAG edc|
cAA Ged|cAA G3|Acd cdg|fgd cBA:|

